X: 185
T:Auld Lang Syne
M:2/4
L:1/8
Q:1/4=72
K:F
C|F>F FA|G>F GA|F>F Ac|d3
f|c>A AF|G>F GA|F>D DC|F3||
d|c>A AF|G>F GA|c>A Ac|d3
f|c>A AF|G>F GA|F>D DC|F3|]

And this is another of the best-known Scottish tunes in this mode, though
it may originally be English ("Lost is my quiet for ever"):

